symbols/web/2k_plus/materialsymbolssharp/2k_plus_wght200gradN25fill1_48px.svg

<svg xmlns="http://www.w3.org/2000/svg" height="48" width="48"><path d="M33.85 27.75h1.5V24.7h3.1v-1.4h-3.1v-3.05h-1.5v3.05h-3.1v1.4h3.1Zm-10.2 1.6h1.55v-4.7l4.9 4.7h2.3l-5.8-5.45 5.8-5.25h-2.25L25.2 23.3v-4.65h-1.55Zm-10.85 0h7.65v-1.5h-6.3V24.7h6.3v-6.05H12.8v1.5h6.15v3.15H12.8Zm-4.75 10.6V8.05h31.9v31.9Z"/></svg>

<svg xmlns="http://www.w3.org/2000/svg" height="48" width="48"><path d="M33.85 27.75H35.35V24.7H38.45V23.3H35.35V20.25H33.85V23.3H30.75V24.7H33.85ZM23.65 29.35H25.2V24.65L30.1 29.35H32.4L26.6 23.9L32.4 18.65H30.15L25.2 23.3V18.65H23.65ZM12.8 29.35H20.45V27.85H14.15V24.7H20.45V18.65H12.8V20.15H18.95V23.3H12.8ZM8.05 39.95V8.05H39.95V39.95Z"/></svg>
